X:87
M:C|
L:1/8
K:D
g|fg/a/ fd bgaf|fg/a/ fd b2eg|fg/a/ fd bgag|fdec d2Dg|fg/a/ fd bgaf|
fg/a/ fd b2eg|fdge afbg|fdec d2D||

